X:1
T:Title
%%score { ( 1 4 ) | ( 2 3 ) }
L:1/8
M:9/8
K:F
V:1 treble nm="Grand Piano"
V:4 treble 
V:2 bass 
V:3 bass 
V:1
 z3 z3[Q:1/4=100] CDE | F3 E3 FGA | B3 A3 .[A,EA]2 [A,DF] | [G,DG]3 [B,DF]3 EDE |[M:3/4] F6 | %5
[M:3/8] z D[B,CE] |[M:9/8] [A,CF]3 [G,CE]3 F-[FG]A | B3 A3 Ged | c3 c3 =BAB |[M:3/4] c6 | %10
[M:3/8] cd[_EA] |[M:9/8] [EB]3 [EB]3 BcG | B3 A3 AGF | d3 c3 cBA |[M:3/4] G6 |[M:3/8] CDE | %16
[M:9/8] F3 F3 Bc[Fd] | z3 z3 .B3 | [CAc]3 B2 A GDE |[M:3/4] F6 |] %20
V:2
 z3 z3 z B,[C,B,C] | [F,A,C]3 [G,B,C]3[K:treble] C-[B,CE][A,CF] | [G,CE]3 [F,CF]3[K:bass] z GD, | %3
 B,,3 G,,3 [C,B,C]2 [C,B,C] |[M:3/4] [F,A,C]6 |[M:3/8] F,2 z | %6
[M:9/8] F,,3 C,3 z B,[K:treble][F,CF] | [F,DF]3 [F,CF]3 EG[G,FG] | [G,EG]3 [G,EG]3 [G,DF]2 [G,DF] | %9
[M:3/4] [CEG]6 |[M:3/8][K:bass] [C,A,]2 [C,^F,] |[M:9/8] [C,G,]3 [C,C]3 [C,G,]2 [E,C] | %12
 [F,CF]3 [F,CF]3 [CF][B,E][F,A,] | [G,B,F]3 [A,CF]3 F-[B,DF][=B,DF] |[M:3/4] [CE]6 | %15
[M:3/8][K:bass] z =B,[C,_B,C] |[M:9/8] [F,A,C]3 [_E,C]3 [D,B,][C,A,][B,,B,] | A,,3 F,3 C-[D,C]E, | %18
 F,3[K:treble] [G,CE]2 [A,F][K:bass] [B,D][G,B,][C,B,C] |[M:3/4] [F,A,C]6 |] %20
V:3
 z3 z3 .C,3 | z3 z3[K:treble] .A,3 | z3 z3[K:bass] .^C,3 | x9 |[M:3/4] x6 |[M:3/8] A,,B,,G,, | %6
[M:9/8] z3 z3 .F,3[K:treble] | z3 z3 .[G,C]3 | x9 |[M:3/4] x6 |[M:3/8][K:bass] x3 |[M:9/8] x9 | %12
 z3 z3 .F,3 | z3 z3 .[A,_E]3 |[M:3/4] x6 |[M:3/8][K:bass] C,2 z |[M:9/8] x9 | z3 z3 .C,3 | %18
 x3[K:treble] x3[K:bass] x3 |[M:3/4] x6 |] %20
V:4
 x9 | x9 | x9 | x9 |[M:3/4] x6 |[M:3/8] C2 z |[M:9/8] z3 z3 .A,3 | x9 | x9 |[M:3/4] x6 | %10
[M:3/8] F2 z |[M:9/8] z3 z3 .E3 | x9 | x9 |[M:3/4] x6 |[M:3/8] x3 |[M:9/8] z3 z3 .F3 | %17
 [CFc]3 [CFA]3 ed[CBc] | x9 |[M:3/4] x6 |] %20

